X:869
T:Strathmashy
R:Strathspey
B:The Athole Collection
M:C
L:1/8
K:C Minor
e|B>G G>F E>CC>E|B,<G,E<G, B,3e|B>GG>F E<C C<E|B,<G, G>=B, C2 C<e|
B<G G>F E<C C>E|B,<G, E>G, B,3e|B<G G>F E>C D<G|B,<G, G>=B, C2C||
G|c/d/e/^f/ g>GG>=A|B<eG>_A B2 Be/d/|c>de>^f g<G G>c|G<c d>B c2 c>d|
e>fg>e f<d b>d|B<G e>G B2 B>a|g>fe>d c>de>g|G<c d>B c2c||

